X: 10241
M: C
L: 1/8
K: D
|:\
d4 f3e | d2A2 d2z2 |\
f4 a3g | f2d2 f2z2 |\
d2d>d d2f2 | e>de>f d2A2 |\
f2f>f f2a2 | g>fg>a f2d2 |\
e2e>e e2a2 | (3(gag) (3(fgf) (3(efe) (3(cdc) |
(3(cde) (3(fed) Tc2 B2 | A2A>A A2z2 ::\
(a3b/a/) g2f2 | g>ab>g e2z2 |\
e2e>e f2f>f | e2e>e e2f2 |\
(f3a/g/) f2e2 | f>ga>f d2z2 |\
d2d>d e2e>e |
d2d>d dABc |\
d2d>d d2f2 | edef d2A2 |\
f2f>f f2a2 | g>fg>a f2d2 |\
(3(fef) (a/g/f/e/) d2Tc2 | d2d>d d2 :|




